icon_installer/data/icons/scalable/actions/show-bench-symbolic.svg

<?xml version="1.0" encoding="UTF-8"?>
<svg height="16px" viewBox="0 0 16 16" width="16px" xmlns="http://www.w3.org/2000/svg">
    <path d="m 2 3 v 1 h -1 v 4 h 1 v 1 h -1 v 2 h 1 v 4 h 2 v -4 h 8 v 4 h 2 v -4 h 1 v -2 h -1 v -1 h 1 v -4 h -1 v -1 h -2 v 1 h -8 v -1 z m 2 5 h 8 v 1 h -8 z m 0 0" fill="#222222"/>
</svg>

<svg xmlns="http://www.w3.org/2000/svg" width="16" height="16"><path fill="#222" d="M2 3v1H1v4h1v1H1v2h1v4h2v-4h8v4h2v-4h1V9h-1V8h1V4h-1V3h-2v1H4V3zm2 5h8v1H4zm0 0"/></svg>
